src/next/cmd/lc_diagramdata.svg

<svg height="24" viewBox="0 0 6.3499999 6.3500002" width="24" xmlns="http://www.w3.org/2000/svg" xmlns:xlink="http://www.w3.org/1999/xlink"><linearGradient id="a" gradientUnits="userSpaceOnUse" x1="32.028248" x2="32.028248" y1="256.97659" y2="292.38217"><stop offset="0" stop-color="#fff"/><stop offset="1" stop-color="#555"/></linearGradient><linearGradient id="b" gradientTransform="matrix(.28123848 0 0 .37648631 .039471 260.72313)" gradientUnits="userSpaceOnUse" x1="46.048" x2="46.048" y1="128.01709" y2="16.6203"><stop offset="0" stop-color="#c7cdd7"/><stop offset="1" stop-color="#fff"/></linearGradient><g transform="matrix(.17187487 0 0 .17187487 .264329 -44.696502)"><path d="m.00145543 267.74441 32.32882257.0113v23.09058l-32.32882257-.0113z" fill="url(#b)"/><path d="m-1.5379166 266.21015v1.53789 4.61367 1.53789 4.62194 1.53789 4.61368.008 1.52963.0165 4.60541 1.54616h1.53789063l6.15985667.008h1.5378907l7.6981736.011h1.537891 7.697721 1.537891l6.162839-.007h1.537891v-1.54616-4.60541-13.86582-6.15156l-7.70073.007h-1.537891-7.697721-1.537891l-7.6981736-.011h-1.5378907l-6.15985667-.008zm1.53789063 1.53789 6.15985667.008v4.61367l-6.15985667-.008zm7.69774737.008 7.6981736.011v4.61367l-7.6981736-.011zm9.2360646.011h7.697721v4.61367h-7.697721zm9.235612 0 6.162839-.007v4.61367l-6.162839.007zm-26.16942397 6.13308 6.15985667.008v4.62194l-6.15985667-.008zm7.69774737.008 7.6981736.011h1.537891 7.697721v4.62194.0631c-.000793-.0357-.02451-.0641-.05426-.0641h-7.642428v-4.55218c0-.0365-.02401-.0661-.05426-.0661h-1.430403c-.03025 0-.05426.0296-.05426.0661v4.55218l-7.6444312-.011c-.029248-.00004-.052199.0277-.053743.0625v-.0615zm18.4716766.011 6.162839-.007v4.62194l-6.162839.007zm-1.537891 6.09575v.0641 4.61368.008l-16.9337856-.011v-.008-4.61368-.0625c.00153.0348.024495.0625.053743.0625l7.6444306.011v4.55218c0 .0365.02401.0661.05426.0661h1.430403c.03025 0 .05426-.0296.05426-.0661v-4.55218h7.642428c.02975 0 .05347-.0284.05426-.0641zm-24.63153297.0456 6.15985667.008v4.61368l-6.15985667-.008zm26.16942397.019 6.162839-.007v4.61368l-6.162839.007zm-26.16942397 6.14913 6.15985667.008v4.60541l-6.15985667-.008zm7.69774737.008 7.6981736.011v4.60541l-7.6981736-.011zm9.2360646.011h7.697721v4.60541h-7.697721zm9.235612 0 6.162839-.007v4.60541l-6.162839.007z" fill="url(#a)"/></g><path d="m11 9v3.042969h-5v.957031h5v3.042969h-5v.957031h5v3.042969h-5v.957031h5 1 5 1 4 1v-.957031-11.042969h-1v3.042969h-4v-3.042969h-1v3.042969h-5v-3.042969zm1 4h5v3.042969h-5zm6 0h4v3.042969h-4zm-6 4h5v3.042969h-5zm6 0h4v3.042969h-4z" fill="#d2d2d2" transform="scale(.26458334)"/></svg>

<?xml version="1.0" encoding="UTF-8" standalone="no"?>
<svg
   xmlns:dc="http://purl.org/dc/elements/1.1/"
   xmlns:cc="http://creativecommons.org/ns#"
   xmlns:rdf="http://www.w3.org/1999/02/22-rdf-syntax-ns#"
   xmlns:svg="http://www.w3.org/2000/svg"
   xmlns="http://www.w3.org/2000/svg"
   xmlns:xlink="http://www.w3.org/1999/xlink"
   xmlns:sodipodi="http://sodipodi.sourceforge.net/DTD/sodipodi-0.dtd"
   xmlns:inkscape="http://www.inkscape.org/namespaces/inkscape"
   height="24"
   viewBox="0 0 6.3499999 6.3500002"
   width="24"
   version="1.1"
   id="svg86"
   sodipodi:docname="lc_diagramdata.svg"
   inkscape:version="0.92.4 (unknown)"
   inkscape:export-filename="/home/rizmut/Dokumen/Rizmut/Github/libreoffice-style-karasa-jaga/build/next/cmd/lc_diagramdata.png"
   inkscape:export-xdpi="96"
   inkscape:export-ydpi="96">
  <metadata
     id="metadata92">
    <rdf:RDF>
      <cc:Work
         rdf:about="">
        <dc:format>image/svg+xml</dc:format>
        <dc:type
           rdf:resource="http://purl.org/dc/dcmitype/StillImage" />
        <dc:title></dc:title>
      </cc:Work>
    </rdf:RDF>
  </metadata>
  <defs
     id="defs90" />
  <sodipodi:namedview
     pagecolor="#ffffff"
     bordercolor="#666666"
     borderopacity="1"
     objecttolerance="10"
     gridtolerance="10"
     guidetolerance="10"
     inkscape:pageopacity="0"
     inkscape:pageshadow="2"
     inkscape:window-width="1366"
     inkscape:window-height="714"
     id="namedview88"
     showgrid="true"
     inkscape:zoom="19.666667"
     inkscape:cx="2.7858757"
     inkscape:cy="12.634438"
     inkscape:window-x="0"
     inkscape:window-y="28"
     inkscape:window-maximized="1"
     inkscape:current-layer="svg86">
    <inkscape:grid
       type="xygrid"
       id="grid94" />
  </sodipodi:namedview>
  <radialGradient
     id="a"
     cx="84.903702"
     cy="-130.14005"
     gradientTransform="matrix(.04899496 -.04899496 .04899496 .04899496 27.763383 298.48358)"
     gradientUnits="userSpaceOnUse"
     r="57.039597"
     xlink:href="#b" />
  <linearGradient
     id="b">
    <stop
       offset="0"
       stop-color="#3a0b02"
       id="stop3" />
    <stop
       offset="1"
       stop-color="#a21d07"
       stop-opacity=".382353"
       id="stop5" />
  </linearGradient>
  <radialGradient
     id="c"
     cx="2.720703"
     cy="-66.273438"
     gradientTransform="matrix(.04899496 -.04899496 .04899496 .04899496 27.763383 298.48358)"
     gradientUnits="userSpaceOnUse"
     r="57.039597"
     xlink:href="#b" />
  <radialGradient
     id="d"
     cx="51.991096"
     cy="-78.028419"
     gradientTransform="matrix(.04899496 -.04899496 .04899496 .04899496 27.763383 298.48358)"
     gradientUnits="userSpaceOnUse"
     r="57.039597"
     xlink:href="#b" />
  <linearGradient
     id="e"
     gradientTransform="scale(1.0975951 .9110828)"
     gradientUnits="userSpaceOnUse"
     x1="26.091133"
     x2="31.500689"
     xlink:href="#f"
     y1="14.856744"
     y2="14.856744" />
  <linearGradient
     id="f">
    <stop
       offset="0"
       stop-color="#765c44"
       id="stop11" />
    <stop
       offset="1"
       stop-color="#765c44"
       stop-opacity="0"
       id="stop13" />
  </linearGradient>
  <filter
     id="g"
     height="1.277481"
     width="1.279832"
     x="-.139916"
     y="-.138741">
    <feGaussianBlur
       stdDeviation=".28784801"
       id="feGaussianBlur16" />
  </filter>
  <linearGradient
     id="h"
     gradientUnits="userSpaceOnUse"
     x1="304.88663"
     x2="345.62039"
     xlink:href="#f"
     y1="385.86127"
     y2="384.62384" />
  <linearGradient
     id="i"
     gradientUnits="userSpaceOnUse"
     spreadMethod="reflect"
     x1="31.606251"
     x2="34.575108"
     y1="13.510336"
     y2="13.510336">
    <stop
       offset="0"
       stop-color="#fff"
       id="stop20" />
    <stop
       offset="1"
       stop-color="#790000"
       stop-opacity="0"
       id="stop22" />
  </linearGradient>
  <radialGradient
     id="j"
     cx="50.424522"
     cy="-81.945961"
     gradientTransform="matrix(.04899496 -.04899496 .04899496 .04899496 27.763382 298.48358)"
     gradientUnits="userSpaceOnUse"
     r="50.15279">
    <stop
       offset="0"
       stop-color="#db3424"
       id="stop25" />
    <stop
       offset="1"
       stop-color="#b32016"
       id="stop27" />
  </radialGradient>
  <linearGradient
     id="k"
     gradientTransform="matrix(.04899496 -.04899496 .04899496 .04899496 27.763383 298.48358)"
     gradientUnits="userSpaceOnUse"
     x1="50.06789"
     x2="59.441998"
     y1="-154.40843"
     y2="-71.617722">
    <stop
       offset="0"
       stop-color="#fff"
       id="stop30" />
    <stop
       offset="1"
       stop-color="#fcf3f3"
       stop-opacity="0"
       id="stop32" />
  </linearGradient>
  <linearGradient
     id="l"
     gradientUnits="userSpaceOnUse"
     spreadMethod="reflect"
     x1="88.606247"
     x2="91.575104"
     y1="13.510336"
     y2="13.510336">
    <stop
       offset="0"
       stop-color="#ff8787"
       id="stop35" />
    <stop
       offset="1"
       stop-color="#ff8787"
       stop-opacity="0"
       id="stop37" />
  </linearGradient>
  <linearGradient
     id="m"
     gradientUnits="userSpaceOnUse"
     x1="32.028248"
     x2="32.028248"
     y1="256.97659"
     y2="292.38217">
    <stop
       offset="0"
       stop-color="#fff"
       id="stop40" />
    <stop
       offset="1"
       stop-color="#555"
       id="stop42" />
  </linearGradient>
  <linearGradient
     id="n"
     gradientTransform="matrix(0.28123848,0,0,0.37648631,0.039471,260.72313)"
     gradientUnits="userSpaceOnUse"
     x1="46.048"
     x2="46.048"
     y1="128.01709"
     y2="16.6203">
    <stop
       offset="0"
       stop-color="#c7cdd7"
       id="stop45" />
    <stop
       offset="1"
       stop-color="#fff"
       id="stop47" />
  </linearGradient>
  <g
     transform="matrix(0.17187487,0,0,0.17187487,0.26432922,-44.696502)"
     id="g54">
    <path
       d="m 0.00145543,267.74441 32.32882257,0.0113 v 23.09058 l -32.32882257,-0.0113 z"
       id="path50"
       style="fill:url(#n)"
       inkscape:connector-curvature="0" />
    <path
       d="m -1.5379166,266.21015 v 1.53789 4.61367 1.53789 4.62194 1.53789 4.61368 0.008 1.52963 0.0165 4.60541 1.54616 H -2.597e-5 l 6.15985667,0.008 h 1.5378907 l 7.6981736,0.011 h 1.537891 7.697721 1.537891 l 6.162839,-0.007 h 1.537891 v -1.54616 -4.60541 -13.86582 -6.15156 l -7.70073,0.007 h -1.537891 -7.697721 -1.537891 l -7.6981736,-0.011 H 6.1598307 l -6.15985667,-0.008 z m 1.53789063,1.53789 6.15985667,0.008 v 4.61367 l -6.15985667,-0.008 z m 7.69774737,0.008 7.6981736,0.011 v 4.61367 l -7.6981736,-0.011 z m 9.2360646,0.011 h 7.697721 v 4.61367 h -7.697721 z m 9.235612,0 6.162839,-0.007 v 4.61367 l -6.162839,0.007 z m -26.16942397,6.13308 6.15985667,0.008 v 4.62194 l -6.15985667,-0.008 z m 7.69774737,0.008 7.6981736,0.011 h 1.537891 7.697721 v 4.62194 0.0631 c -7.93e-4,-0.0357 -0.02451,-0.0641 -0.05426,-0.0641 h -7.642428 v -4.55218 c 0,-0.0365 -0.02401,-0.0661 -0.05426,-0.0661 h -1.430403 c -0.03025,0 -0.05426,0.0296 -0.05426,0.0661 v 4.55218 l -7.6444312,-0.011 c -0.029248,-4e-5 -0.052199,0.0277 -0.053743,0.0625 v -0.0615 z m 18.4716766,0.011 6.162839,-0.007 v 4.62194 l -6.162839,0.007 z m -1.537891,6.09575 v 0.0641 4.61368 0.008 l -16.9337856,-0.011 v -0.008 -4.61368 -0.0625 c 0.00153,0.0348 0.024495,0.0625 0.053743,0.0625 l 7.6444306,0.011 v 4.55218 c 0,0.0365 0.02401,0.0661 0.05426,0.0661 h 1.430403 c 0.03025,0 0.05426,-0.0296 0.05426,-0.0661 v -4.55218 h 7.642428 c 0.02975,0 0.05347,-0.0284 0.05426,-0.0641 z m -24.63153297,0.0456 6.15985667,0.008 v 4.61368 l -6.15985667,-0.008 z m 26.16942397,0.019 6.162839,-0.007 v 4.61368 l -6.162839,0.007 z m -26.16942397,6.14913 6.15985667,0.008 v 4.60541 l -6.15985667,-0.008 z m 7.69774737,0.008 7.6981736,0.011 v 4.60541 l -7.6981736,-0.011 z m 9.2360646,0.011 h 7.697721 v 4.60541 h -7.697721 z m 9.235612,0 6.162839,-0.007 v 4.60541 l -6.162839,0.007 z"
       id="path52"
       style="fill:url(#m)"
       inkscape:connector-curvature="0" />
  </g>
  <path
     style="opacity:1;fill:#d2d2d2;fill-opacity:1;stroke:none;stroke-width:0.2;stroke-miterlimit:4;stroke-dasharray:none;stroke-dashoffset:0;stroke-opacity:1"
     d="M 11 9 L 11 12.042969 L 6 12.042969 L 6 13 L 11 13 L 11 16.042969 L 6 16.042969 L 6 17 L 11 17 L 11 20.042969 L 6 20.042969 L 6 21 L 11 21 L 12 21 L 17 21 L 18 21 L 22 21 L 23 21 L 23 20.042969 L 23 9 L 22 9 L 22 12.042969 L 18 12.042969 L 18 9 L 17 9 L 17 12.042969 L 12 12.042969 L 12 9 L 11 9 z M 12 13 L 17 13 L 17 16.042969 L 12 16.042969 L 12 13 z M 18 13 L 22 13 L 22 16.042969 L 18 16.042969 L 18 13 z M 12 17 L 17 17 L 17 20.042969 L 12 20.042969 L 12 17 z M 18 17 L 22 17 L 22 20.042969 L 18 20.042969 L 18 17 z "
     transform="scale(0.26458334)"
     id="rect96" />
</svg>
